svg/u26a1.svg

<svg viewBox="0 0 128 128" xmlns="http://www.w3.org/2000/svg">
  <path d="M69.68,54.04c0,0,28.97-46.41,29.63-47.57c0.66-1.16,0.8-3.29-1.02-3.29 c-1.82,0-46.95,46.07-46.95,46.07l-32.05,19c0,0-2.15,1.32-1.82,2.97s1.77,1.72,2.43,1.72s34.85-0.18,36.84-0.24 c2.47-0.07,1.86,3.44,1.86,3.44l-21.64,34.02c0,0-9.45,13.08-9.45,13.97c0,1.31,1.58,1.96,3.05,1.08 c1.14-0.68,74.84-63.13,78.09-67.42c0.88-1.17,1.33-4.25-2.3-4.25s-32.54,8.42-32.54,8.42L69.68,54.04z" fill="#FEB804"/>
  <path d="M64.61,50.35c-0.89,1.22-1.13,3.26,0.79,3.38c1.91,0.11,40.95-0.18,40.95-0.18 S78.46,79.18,70.02,86.83s-36.39,32.43-38.27,34.18c-1.84,1.72-3.51,3.3-4.19,3.08c-0.11-0.03-0.25-0.62,2.38-4.95 c2.4-3.95,25.44-42.56,26.34-44.02c0.9-1.46,1.69-2.7,2.14-3.38c0.45-0.68,1.91-4.39-1.13-4.39s-38,0.9-38,0.9s24.15-20.49,31.13-26 S96.96,3.18,98.29,3.18S65.51,49.12,64.61,50.35z" fill="#FFC927"/>
  <path d="M63.45,70.75c1.8-2.59,3.57-2.78,4.64-2.14c1.38,0.83,1.52,2.74-0.22,5.05 c-2.74,3.66-22.88,30.61-23.65,31.56c-1.46,1.8-3.61,1.01-2.21-1.6C43.18,101.46,61.59,73.43,63.45,70.75z" fill="#FFE567"/>
  <path d="M34.83,65.49c-3.45,2.31-6.66-1.14-4.35-3.67s17.47-15.15,20.54-17.76s20.99-18.2,22.38-19.32 c1.84-1.48,2.98,0.02,1.82,1.56c-1.15,1.54-13.82,14.2-19.41,19.34C51.49,49.62,38.11,63.29,34.83,65.49z" fill="#FFE567"/>
</svg>

<svg viewBox="0 0 128 128" xmlns="http://www.w3.org/2000/svg">
  <defs/>
  <path d="M69.68,54.04 C69.68,54.04 98.65,7.63 99.31,6.47 C99.97,5.31 100.11,3.18 98.29,3.18 C96.47,3.18 51.34,49.25 51.34,49.25 L19.29,68.25 C19.29,68.25 17.14,69.57 17.47,71.22 C17.8,72.87 19.24,72.94 19.9,72.94 C20.56,72.94 54.75,72.76 56.74,72.7 C59.21,72.63 58.6,76.14 58.6,76.14 L36.96,110.16 C36.96,110.16 27.51,123.24 27.51,124.13 C27.51,125.44 29.09,126.09 30.56,125.21 C31.7,124.53 105.4,62.08 108.65,57.79 C109.53,56.62 109.98,53.54 106.35,53.54 C102.72,53.54 73.81,61.96 73.81,61.96 L69.68,54.04 Z" fill="#FEB804"/>
  <path d="M64.61,50.35 C63.72,51.57 63.48,53.61 65.4,53.73 C67.31,53.84 106.35,53.55 106.35,53.55 C106.35,53.55 78.46,79.18 70.02,86.83 C61.58,94.48 33.63,119.26 31.75,121.01 C29.91,122.73 28.24,124.31 27.56,124.09 C27.45,124.06 27.31,123.47 29.94,119.14 C32.34,115.19 55.38,76.58 56.28,75.12 C57.18,73.66 57.97,72.42 58.42,71.74 C58.87,71.06 60.33,67.35 57.29,67.35 C54.25,67.35 19.29,68.25 19.29,68.25 C19.29,68.25 43.44,47.76 50.42,42.25 C57.4,36.74 96.96,3.18 98.29,3.18 C99.62,3.18 65.51,49.12 64.61,50.35 Z" fill="#FFC927"/>
  <path d="M63.45,70.75 C65.25,68.16 67.02,67.97 68.09,68.61 C69.47,69.44 69.61,71.35 67.87,73.66 C65.13,77.32 44.99,104.27 44.22,105.22 C42.76,107.02 40.61,106.23 42.01,103.62 C43.18,101.46 61.59,73.43 63.45,70.75 Z" fill="#FFE567"/>
  <path d="M34.83,65.49 C31.38,67.8 28.17,64.35 30.48,61.82 C32.79,59.29 47.95,46.67 51.02,44.06 C54.09,41.45 72.01,25.86 73.4,24.74 C75.24,23.26 76.38,24.76 75.22,26.3 C74.07,27.84 61.4,40.5 55.81,45.64 C51.49,49.62 38.11,63.29 34.83,65.49 Z" fill="#FFE567"/>
</svg>
